imgs/github.svg

<svg width="80" height="80" fill="none" xmlns="http://www.w3.org/2000/svg"><path d="M40 0C17.9 0 0 17.9 0 40c0 17.7 11.45 32.65 27.35 37.95 2 .35 2.75-.85 2.75-1.9 0-.95-.05-4.1-.05-7.45C20 70.45 17.4 66.15 16.6 63.9c-.45-1.15-2.4-4.7-4.1-5.65-1.4-.75-3.4-2.6-.05-2.65 3.15-.05 5.4 2.9 6.15 4.1 3.6 6.05 9.35 4.35 11.65 3.3.35-2.6 1.4-4.35 2.55-5.35-8.9-1-18.2-4.45-18.2-19.75 0-4.35 1.55-7.95 4.1-10.75-.4-1-1.8-5.1.4-10.6 0 0 3.35-1.05 11 4.1 3.2-.9 6.6-1.35 10-1.35 3.4 0 6.8.45 10 1.35 7.65-5.2 11-4.1 11-4.1 2.2 5.5.8 9.6.4 10.6 2.55 2.8 4.1 6.35 4.1 10.75 0 15.35-9.35 18.75-18.25 19.75 1.45 1.25 2.7 3.65 2.7 7.4 0 5.35-.05 9.65-.05 11 0 1.05.75 2.3 2.75 1.9A40.065 40.065 0 0 0 80 40C80 17.9 62.1 0 40 0Z" fill="url(#a)"/><defs><linearGradient id="a" x1="40" y1="0" x2="40" y2="78.026" gradientUnits="userSpaceOnUse"><stop stop-color="#FFB845"/><stop offset="1" stop-color="#F2AB38"/></linearGradient></defs></svg>

<svg width="80" height="80" viewBox="0 0 80 80" fill="none" xmlns="http://www.w3.org/2000/svg">
<path d="M40 0C17.9 0 0 17.9 0 40C0 57.7 11.45 72.65 27.35 77.95C29.35 78.3 30.1 77.1 30.1 76.05C30.1 75.1 30.05 71.95 30.05 68.6C20 70.45 17.4 66.15 16.6 63.9C16.15 62.75 14.2 59.2 12.5 58.25C11.1 57.5 9.1 55.65 12.45 55.6C15.6 55.55 17.85 58.5 18.6 59.7C22.2 65.75 27.95 64.05 30.25 63C30.6 60.4 31.65 58.65 32.8 57.65C23.9 56.65 14.6 53.2 14.6 37.9C14.6 33.55 16.15 29.95 18.7 27.15C18.3 26.15 16.9 22.05 19.1 16.55C19.1 16.55 22.45 15.5 30.1 20.65C33.3 19.75 36.7 19.3 40.1 19.3C43.5 19.3 46.9 19.75 50.1 20.65C57.75 15.45 61.1 16.55 61.1 16.55C63.3 22.05 61.9 26.15 61.5 27.15C64.05 29.95 65.6 33.5 65.6 37.9C65.6 53.25 56.25 56.65 47.35 57.65C48.8 58.9 50.05 61.3 50.05 65.05C50.05 70.4 50 74.7 50 76.05C50 77.1 50.75 78.35 52.75 77.95C60.6907 75.2693 67.5909 70.1659 72.4792 63.3581C77.3675 56.5503 79.9979 48.381 80 40C80 17.9 62.1 0 40 0Z" fill="url(#paint0_linear_99_13)"/>
<defs>
<linearGradient id="paint0_linear_99_13" x1="40" y1="0" x2="40" y2="78.0264" gradientUnits="userSpaceOnUse">
<stop stop-color="#FFB845"/>
<stop offset="1" stop-color="#F2AB38"/>
</linearGradient>
</defs>
</svg>
